X: 272
T: the Hessian Dragoons March
B: C. & S. Thompson, "The Compleat Tutor for the Fife" c.1760 p.27 #2
S: http://imslp.org/wiki/The_Compleat_Tutor_for_the_Fife_(Anonymous)
Z: 2014 John Chambers <jc:trillian.mit.edu>
M: 2/4
L: 1/16
K: G
% - - - - - - - - - - - - - - - - - - - - - - - - -
(Bc) |\
d2Bc d2d2 | (d^c)(de) d2ge |\
(d2c2)(c2B2) | TA>GAB A2(3(gfe) |\
d2c>d c2B2 | TA>GAB A2GA |\
B2Bc d2cB | {B2}A6 :|
|: B2 |\
A2AB A2B2 | cBcd c2(3(Bcd) |\
Te2d2 edcB | AGFE D2Bc |\
d2Bc d2g2 | d2cB c2AB |\
c2AB c2a2 | c2TB>A B2d2 |\
e>dg>c B2TA2 |HG6 :|
% - - - - - - - - - - - - - - - - - - - - - - - - -
